; HEADER_BLOCK_START
; generated by OrcaSlicer 2.3.1 on 2026-03-20 at 14:48:38
; total layer number: 90
; filament_density: 1.24
; filament_diameter: 1.75
; max_z_height: 18.00
; HEADER_BLOCK_END

; THUMBNAIL_BLOCK_START

;
; THUMBNAIL_BLOCK_END

; THUMBNAIL_BLOCK_START

;
; THUMBNAIL_BLOCK_END

; external perimeters extrusion width = 0.42mm
; perimeters extrusion width = 0.45mm
; infill extrusion width = 0.45mm
; solid infill extrusion width = 0.42mm
; top infill extrusion width = 0.42mm
; support material extrusion width = 0.42mm
; first layer extrusion width = 0.50mm

; EXECUTABLE_BLOCK_START
EXCLUDE_OBJECT_DEFINE NAME=Sprocket_Mold_for_drilling_holes.STL_id_0_copy_0 CENTER=110,110 POLYGON=[[85,85],[135,85],[135,135],[85,135],[85,85]]
M73 P0 R25
M106 S0
M106 P2 S0
;TYPE:Custom
M106 P2 S255 
M191 S25 ;set chamber_temperature and wait for it to be reached
M106 P2 S0 
M140 S0
M104 S0 
START_PRINT EXTRUDER_TEMP=220 BED_TEMP=60
G90
G21
M83 ; use relative distances for extrusion
; filament start gcode
M106 S0
M106 P2 S0
;LAYER_CHANGE
;Z:0.2
;HEIGHT:0.2
;BEFORE_LAYER_CHANGE
;0.2
G92 E0

G1 E-.6 F2400
;_SET_FAN_SPEED_CHANGING_LAYER
SET_VELOCITY_LIMIT ACCEL=500 ACCEL_TO_DECEL=250
SET_VELOCITY_LIMIT SQUARE_CORNER_VELOCITY=9
EXCLUDE_OBJECT_START NAME=Sprocket_Mold_for_drilling_holes.STL_id_0_copy_0
G1 Z.4 F30000
G1 X81.926 Y81.797
G1 Z.4
G1 Z.2
G1 E.6 F2400
;TYPE:Brim
;WIDTH:0.5
G1 F3600
G1 X82.419 Y81.386 E.0239
G1 X82.964 Y81.053 E.02378
G1 X83.802 Y80.727 E.0335
G1 X84.429 Y80.596 E.02386
G1 X85.008 Y80.558 E.02159
G1 X134.992 Y80.558 E1.86171
G1 X135.64 Y80.606 E.02422
G1 X136.263 Y80.746 E.02377
G1 X137.106 Y81.103 E.03411
G1 X137.724 Y81.5 E.02737
G1 X138.203 Y81.926 E.02386
G1 X138.614 Y82.419 E.0239
G1 X138.947 Y82.964 E.02378
G1 X139.273 Y83.802 E.0335
G1 X139.404 Y84.429 E.02386
G1 X139.442 Y85.008 E.02159
G1 X139.442 Y134.992 E1.86171
G1 X139.394 Y135.64 E.02422
G1 X139.254 Y136.263 E.02377
G1 X138.897 Y137.106 E.03411
G1 X138.5 Y137.724 E.02737
G1 X138.074 Y138.203 E.02386
G1 X137.581 Y138.614 E.0239
G1 X137.036 Y138.947 E.02378
G1 X136.198 Y139.273 E.0335
G1 X135.571 Y139.404 E.02386
G1 X134.992 Y139.442 E.02159
G1 X85.008 Y139.442 E1.86171
G1 X84.36 Y139.394 E.02422
G1 X83.737 Y139.254 E.02377
G1 X82.894 Y138.897 E.03411
G1 X82.276 Y138.5 E.02737
G1 X81.797 Y138.074 E.02386
G1 X81.386 Y137.581 E.0239
G1 X81.053 Y137.036 E.02378
G1 X80.727 Y136.198 E.0335
G1 X80.596 Y135.571 E.02386
G1 X80.558 Y134.992 E.02159
G1 X80.558 Y85.008 E1.86171
G1 X80.606 Y84.36 E.02422
G1 X80.746 Y83.737 E.02377
G1 X81.103 Y82.894 E.03411
G1 X81.5 Y82.276 E.02737
G1 X81.899 Y81.827 E.02237
G1 X82.238 Y82.134 F30000
G1 F3600
G1 X82.694 Y81.753 E.02213
G1 X83.178 Y81.46 E.02108
G1 X83.944 Y81.164 E.03055
G1 X84.482 Y81.052 E.02048
G1 X85.027 Y81.015 E.02036
G1 X134.98 Y81.015 E1.86054
G1 X135.562 Y81.058 E.02176
G1 X136.11 Y81.18 E.0209
G1 X136.881 Y81.505 E.03116
G1 X137.438 Y81.86 E.02461
G1 X137.866 Y82.238 E.02128
G1 X138.247 Y82.694 E.02213
G1 X138.54 Y83.178 E.02108
G1 X138.836 Y83.944 E.03055
G1 X138.948 Y84.482 E.02048
G1 X138.985 Y85.018 E.02002
G1 X138.985 Y134.97 E1.8605
G1 X138.942 Y135.562 E.02214
G1 X138.812 Y136.133 E.02181
G1 X138.485 Y136.902 E.03111
G1 X138.14 Y137.438 E.02375
G1 X137.762 Y137.866 E.02128
G1 X137.306 Y138.247 E.02213
G1 X136.822 Y138.54 E.02108
G1 X136.056 Y138.836 E.03055
G1 X135.518 Y138.948 E.02048
G1 X134.973 Y138.985 E.02036
G1 X85.03 Y138.985 E1.86016
G1 X84.438 Y138.942 E.02214
G1 X83.867 Y138.812 E.02181
G1 X83.098 Y138.485 E.03111
G1 X82.562 Y138.14 E.02375
G1 X82.134 Y137.762 E.02128
G1 X81.753 Y137.306 E.02213
G1 X81.46 Y136.822 E.02108
G1 X81.164 Y136.056 E.03055
G1 X81.052 Y135.518 E.02048
G1 X81.015 Y134.973 E.02036
G1 X81.015 Y85.03 E1.86017
G1 X81.058 Y84.438 E.02214
G1 X81.188 Y83.867 E.02181
G1 X81.515 Y83.098 E.03111
G1 X81.86 Y82.562 E.02375
G1 X82.212 Y82.164 E.01979
G1 X82.551 Y82.47 F30000
G1 F3600
G1 X82.952 Y82.133 E.01954
G1 X83.392 Y81.868 E.01912
G1 X84.085 Y81.602 E.02764
G1 X84.554 Y81.505 E.01785
G1 X85.047 Y81.472 E.01842
G1 X134.958 Y81.472 E1.85897
G1 X135.485 Y81.511 E.01971
G1 X135.982 Y81.622 E.01895
G1 X136.678 Y81.917 E.02816
G1 X137.153 Y82.22 E.02099
G1 X137.53 Y82.551 E.01866
G1 X137.867 Y82.952 E.01954
G1 X138.132 Y83.392 E.01912
G1 X138.398 Y84.085 E.02764
G1 X138.495 Y84.554 E.01785
G1 X138.527 Y85.029 E.01774
G1 X138.528 Y134.948 E1.85928
G1 X138.489 Y135.484 E.02004
G1 X138.371 Y136.003 E.01983
G1 X138.073 Y136.697 E.02811
G1 X137.78 Y137.153 E.02018
G1 X137.449 Y137.53 E.01868
G1 X137.048 Y137.867 E.01954
G1 X136.608 Y138.132 E.01912
G1 X135.915 Y138.398 E.02764
G1 X135.446 Y138.495 E.01785
G1 X134.953 Y138.528 E.01842
G1 X85.052 Y138.528 E1.8586
G1 X84.516 Y138.489 E.02004
G1 X83.997 Y138.371 E.01983
G1 X83.303 Y138.073 E.02811
G1 X82.847 Y137.78 E.02018
G1 X82.47 Y137.449 E.01868
G1 X82.133 Y137.048 E.01954
G1 X81.868 Y136.608 E.01912
G1 X81.602 Y135.915 E.02764
G1 X81.505 Y135.446 E.01785
G1 X81.472 Y134.953 E.01842
G1 X81.472 Y85.052 E1.8586
G1 X81.511 Y84.516 E.02004
G1 X81.629 Y83.997 E.01983
G1 X81.927 Y83.303 E.02811
G1 X82.22 Y82.847 E.02018
G1 X82.524 Y82.5 E.01719
G1 X82.864 Y82.806 F30000
G1 F3600
G1 X83.211 Y82.513 E.01691
G1 X83.605 Y82.276 E.01712
G1 X84.224 Y82.04 E.0247
G1 X84.625 Y81.958 E.01522
G1 X85.067 Y81.929 E.01651
G1 X134.936 Y81.929 E1.85742
G1 X135.408 Y81.964 E.01764
G1 X135.853 Y82.064 E.01699
G1 X136.474 Y82.329 E.02516
G1 X136.869 Y82.581 E.01744
G1 X137.194 Y82.864 E.01606
G1 X137.487 Y83.211 E.01691
G1 X137.724 Y83.605 E.01712
G1 X137.96 Y84.224 E.0247
G1 X138.042 Y84.625 E.01523
G1 X138.07 Y85.04 E.01549
G1 X138.071 Y134.926 E1.85807
G1 X138.033 Y135.427 E.01869
M73 P1 R25
G1 X137.929 Y135.873 E.01706
G1 X137.662 Y136.491 E.02511
G1 X137.42 Y136.868 E.01668
G1 X137.136 Y137.194 E.0161
G1 X136.789 Y137.487 E.01691
G1 X136.395 Y137.724 E.01712
G1 X135.776 Y137.96 E.0247
G1 X135.375 Y138.042 E.01522
G1 X134.933 Y138.071 E.01651
G1 X85.074 Y138.071 E1.85705
G1 X84.573 Y138.033 E.01869
G1 X84.127 Y137.929 E.01706
G1 X83.509 Y137.662 E.02511
G1 X83.132 Y137.42 E.01668
G1 X82.806 Y137.136 E.0161
G1 X82.513 Y136.789 E.01691
G1 X82.276 Y136.395 E.01712
G1 X82.04 Y135.776 E.0247
G1 X81.958 Y135.375 E.01522
G1 X81.929 Y134.933 E.01651
G1 X81.929 Y85.074 E1.85705
G1 X81.967 Y84.573 E.01869
G1 X82.071 Y84.127 E.01706
G1 X82.338 Y83.509 E.02511
G1 X82.58 Y83.132 E.01668
G1 X82.838 Y82.836 E.01461
G1 X83.179 Y83.14 F30000
G1 F3600
G1 X83.487 Y82.88 E.01504
G1 X83.817 Y82.684 E.01427
G1 X84.363 Y82.478 E.02174
G1 X84.695 Y82.412 E.01261
G1 X85.087 Y82.386 E.01463
G1 X134.914 Y82.386 E1.85588
G1 X135.331 Y82.416 E.01554
M73 P1 R24
G1 X135.723 Y82.506 E.015
G1 X136.27 Y82.741 E.02217
G1 X136.586 Y82.942 E.01396
G1 X136.86 Y83.179 E.01348
G1 X137.12 Y83.487 E.01504
G1 X137.316 Y83.817 E.01427
G1 X137.522 Y84.363 E.02174
G1 X137.588 Y84.696 E.01263
G1 X137.613 Y85.051 E.01327
G1 X137.614 Y134.904 E1.85683
G1 X137.581 Y135.347 E.01654
G1 X137.489 Y135.74 E.01505
G1 X137.251 Y136.285 E.02215
G1 X137.059 Y136.585 E.01325
G1 X136.821 Y136.86 E.01354
G1 X136.513 Y137.12 E.01504
G1 X136.183 Y137.316 E.01427
G1 X135.637 Y137.522 E.02174
G1 X135.305 Y137.588 E.01261
G1 X134.913 Y137.614 E.01463
G1 X85.096 Y137.614 E1.85548
G1 X84.653 Y137.581 E.01654
G1 X84.26 Y137.489 E.01505
G1 X83.715 Y137.251 E.02215
G1 X83.415 Y137.059 E.01325
G1 X83.14 Y136.821 E.01354
G1 X82.88 Y136.513 E.01504
G1 X82.684 Y136.183 E.01427
G1 X82.478 Y135.637 E.02174
G1 X82.412 Y135.305 E.01261
G1 X82.386 Y134.913 E.01463
G1 X82.386 Y85.096 E1.85548
G1 X82.419 Y84.653 E.01654
G1 X82.511 Y84.26 E.01505
G1 X82.749 Y83.715 E.02215
G1 X82.941 Y83.415 E.01325
G1 X83.153 Y83.171 E.01205
G1 X83.48 Y83.508 F30000
G1 F3600
G1 X83.842 Y83.208 E.01749
G1 X84.185 Y83.023 E.01453
G1 X84.553 Y82.904 E.0144
G1 X85.036 Y82.843 E.01815
G1 X134.958 Y82.843 E1.85941
G1 X135.5 Y82.92 E.0204
G1 X135.875 Y83.05 E.01478
G1 X136.221 Y83.255 E.01495
G1 X136.576 Y83.566 E.0176
G1 X136.85 Y83.934 E.0171
G1 X137.014 Y84.277 E.01413
G1 X137.116 Y84.649 E.01438
G1 X137.157 Y85.035 E.01444
G1 X137.157 Y134.968 E1.85983
G1 X137.113 Y135.352 E.01438
G1 X136.967 Y135.832 E.01871
G1 X136.741 Y136.227 E.01695
G1 X136.433 Y136.577 E.01733
G1 X136.066 Y136.85 E.01707
G1 X135.723 Y137.014 E.01414
G1 X135.351 Y137.116 E.01438
G1 X134.965 Y137.157 E.01444
G1 X85.032 Y137.157 E1.85983
G1 X84.648 Y137.113 E.01438
G1 X84.168 Y136.967 E.01871
G1 X83.773 Y136.741 E.01695
G1 X83.423 Y136.433 E.01733
G1 X83.15 Y136.066 E.01707
G1 X82.986 Y135.723 E.01414
G1 X82.884 Y135.351 E.01438
G1 X82.843 Y134.965 E.01444
G1 X82.843 Y85.041 E1.8595
G1 X82.899 Y84.592 E.01686
G1 X83.003 Y84.233 E.01391
G1 X83.198 Y83.862 E.01561
G1 X83.455 Y83.539 E.01536
G1 X83.806 Y83.83 F30000
G1 F3600
G1 X83.839 Y83.791 E.00192
G1 X84.131 Y83.562 E.01381
G1 X84.398 Y83.427 E.01117
G1 X84.692 Y83.339 E.01142
G1 X85.027 Y83.3 E.01257
G1 X134.968 Y83.3 E1.86009
G1 X135.356 Y83.353 E.01458
G1 X135.642 Y83.443 E.01116
G1 X135.922 Y83.6 E.01199
G1 X136.209 Y83.839 E.01391
G1 X136.438 Y84.131 E.01381
G1 X136.573 Y84.398 E.01117
G1 X136.661 Y84.692 E.01142
G1 X136.7 Y85.027 E.01257
G1 X136.7 Y134.976 E1.86039
G1 X136.659 Y135.306 E.01241
G1 X136.529 Y135.702 E.01549
G1 X136.396 Y135.927 E.00975
G1 X136.161 Y136.21 E.0137
G1 X135.869 Y136.438 E.01379
G1 X135.602 Y136.573 E.01117
G1 X135.308 Y136.661 E.01142
G1 X134.973 Y136.7 E.01257
G1 X85.024 Y136.7 E1.86039
G1 X84.694 Y136.659 E.01241
G1 X84.298 Y136.529 E.01549
G1 X84.073 Y136.396 E.00975
G1 X83.79 Y136.161 E.0137
G1 X83.562 Y135.869 E.01379
G1 X83.427 Y135.602 E.01117
G1 X83.339 Y135.308 E.01142
G1 X83.3 Y134.973 E.01257
G1 X83.3 Y85.032 E1.86009
G1 X83.353 Y84.644 E.01458
G1 X83.443 Y84.358 E.01116
G1 X83.6 Y84.078 E.01199
G1 X83.78 Y83.861 E.0105
G1 X84.132 Y84.153 F30000
G1 F3600
G1 X84.196 Y84.075 E.00374
G1 X84.403 Y83.929 E.00943
G1 X84.6 Y83.837 E.00811
G1 X84.742 Y83.794 E.00551
G1 X85.019 Y83.757 E.01044
G1 X134.977 Y83.757 E1.86073
G1 X135.295 Y83.806 E.01198
M73 P2 R24
G1 X135.503 Y83.878 E.00819
G1 X135.621 Y83.944 E.00504
G1 X135.925 Y84.196 E.0147
G1 X136.071 Y84.403 E.00943
G1 X136.163 Y84.6 E.0081
G1 X136.206 Y84.742 E.00551
G1 X136.243 Y85.019 E.01044
G1 X136.243 Y134.984 E1.861
G1 X136.224 Y135.166 E.00679
G1 X136.13 Y135.48 E.01222
G1 X136.052 Y135.626 E.00617
G1 X135.804 Y135.924 E.01445
G1 X135.597 Y136.071 E.00943
G1 X135.4 Y136.163 E.0081
G1 X135.258 Y136.206 E.00551
G1 X134.981 Y136.243 E.01044
G1 X85.016 Y136.243 E1.861
G1 X84.834 Y136.224 E.00679
G1 X84.52 Y136.13 E.01222
G1 X84.374 Y136.052 E.00617
G1 X84.076 Y135.804 E.01445
G1 X83.929 Y135.597 E.00943
G1 X83.837 Y135.4 E.00811
G1 X83.794 Y135.258 E.00551
G1 X83.757 Y134.981 E.01044
G1 X83.757 Y85.023 E1.86073
G1 X83.806 Y84.705 E.01198
G1 X83.878 Y84.497 E.00819
G1 X83.944 Y84.379 E.00504
G1 X84.107 Y84.184 E.00947
G1 X84.462 Y84.453 F30000
G1 F3600
G1 X84.473 Y84.439 E.00068
G1 X84.586 Y84.348 E.00541
G1 X84.803 Y84.246 E.00892
G1 X85.011 Y84.214 E.00781
G1 X134.988 Y84.214 E1.86145
G1 X135.221 Y84.257 E.00884
G1 X135.34 Y84.304 E.00475
G1 X135.561 Y84.473 E.01037
G1 X135.652 Y84.586 E.00541
G1 X135.754 Y84.803 E.00892
G1 X135.786 Y85.011 E.00782
G1 X135.786 Y134.991 E1.86159
G1 X135.77 Y135.118 E.00475
G1 X135.694 Y135.343 E.00884
G1 X135.527 Y135.561 E.01023
G1 X135.414 Y135.652 E.00541
G1 X135.197 Y135.754 E.00892
G1 X134.989 Y135.786 E.00782
G1 X85.009 Y135.786 E1.86159
G1 X84.882 Y135.77 E.00475
G1 X84.657 Y135.694 E.00884
G1 X84.439 Y135.527 E.01023
G1 X84.348 Y135.414 E.00541
G1 X84.246 Y135.197 E.00892
G1 X84.214 Y134.989 E.00781
G1 X84.214 Y85.012 E1.86145
G1 X84.257 Y84.779 E.00884
G1 X84.304 Y84.66 E.00475
G1 X84.438 Y84.485 E.00821
G1 X84.747 Y84.805 F30000
G1 F3600
G1 X84.884 Y84.696 E.00652
G1 X85 Y84.671 E.00442
G1 X135 Y84.671 E1.86231
G1 X135.111 Y84.7 E.00426
G1 X135.195 Y84.747 E.00361
G1 X135.304 Y84.884 E.00652
G1 X135.329 Y85 E.00442
G1 X135.329 Y135 E1.86231
G1 X135.3 Y135.111 E.00426
G1 X135.253 Y135.195 E.00361
G1 X135.116 Y135.304 E.00652
G1 X135 Y135.329 E.00442
G1 X85 Y135.329 E1.86231
G1 X84.889 Y135.3 E.00426
G1 X84.805 Y135.253 E.00361
G1 X84.696 Y135.116 E.00652
G1 X84.671 Y135 E.00442
G1 X84.671 Y85 E1.86231
G1 X84.7 Y84.889 E.00426
G1 X84.728 Y84.84 E.00212
;WIPE_START
G1 X84.884 Y84.696 E-.06373
G1 X85 Y84.671 E-.03563
G1 X86.669 Y84.671 E-.50064
;WIPE_END
G1 Z.4 F30000
G1 X133.664 Y133.664 Z.4
G1 Z.2
G1 E.6 F2400
;TYPE:Inner wall
;WIDTH:0.499999
G1 F3600
G1 X86.336 Y133.664 E1.76281
G1 X86.336 Y86.336 E1.76281
G1 X133.664 Y86.336 E1.76281
G1 X133.664 Y133.624 E1.76132
G1 X134.121 Y134.121 F30000
M73 P3 R24
G1 F3600
G1 X85.879 Y134.121 E1.79686
G1 X85.879 Y85.879 E1.79686
G1 X134.121 Y85.879 E1.79686
G1 X134.121 Y134.081 E1.79537
G1 X134.6 Y134.6 F30000
;TYPE:Outer wall
G1 F3600
G1 X85.4 Y134.6 E1.83251
G1 X85.4 Y85.4 E1.83251
G1 X134.6 Y85.4 E1.83251
G1 X134.6 Y134.56 E1.83102
;WIPE_START
G1 X132.6 Y134.562 E-.6
;WIPE_END
G1 Z.4 F30000
G1 X133.527 Y87.402 Z.4
G1 Z.2
G1 E.6 F2400
;TYPE:Bottom surface
;WIDTH:0.502297
G1 F6300
G1 X132.804 Y86.678 E.03828
G1 X132.154 Y86.678 E.02432
G1 X133.322 Y87.846 E.06179
G1 X133.322 Y88.495 E.02432
G1 X131.505 Y86.678 E.09618
G1 X130.855 Y86.678 E.02432
G1 X133.322 Y89.145 E.13057
G1 X133.322 Y89.795 E.02432
G1 X130.205 Y86.678 E.16496
G1 X129.556 Y86.678 E.02432
G1 X133.322 Y90.444 E.19936
G1 X133.322 Y91.094 E.02432
G1 X128.906 Y86.678 E.23375
G1 X128.256 Y86.678 E.02432
G1 X133.322 Y91.744 E.26814
G1 X133.322 Y92.393 E.02432
G1 X127.607 Y86.678 E.30253
G1 X126.957 Y86.678 E.02432
G1 X133.322 Y93.043 E.33692
G1 X133.322 Y93.692 E.02432
G1 X126.308 Y86.678 E.37132
G1 X125.658 Y86.678 E.02432
G1 X133.322 Y94.342 E.40571
G1 X133.322 Y94.992 E.02432
G1 X125.008 Y86.678 E.4401
G1 X124.359 Y86.678 E.02432
G1 X133.322 Y95.641 E.47449
G1 X133.322 Y96.291 E.02432
G1 X123.709 Y86.678 E.50888
G1 X123.059 Y86.678 E.02432
G1 X133.322 Y96.941 E.54328
G1 X133.322 Y97.59 E.02432
G1 X122.41 Y86.678 E.57767
G1 X121.76 Y86.678 E.02432
G1 X133.322 Y98.24 E.61206
G1 X133.322 Y98.89 E.02432
G1 X121.11 Y86.678 E.64645
G1 X120.461 Y86.678 E.02432
G1 X133.322 Y99.539 E.68084
G1 X133.322 Y100.189 E.02432
G1 X119.811 Y86.678 E.71524
G1 X119.161 Y86.678 E.02432
G1 X133.322 Y100.839 E.74963
G1 X133.322 Y101.488 E.02432
G1 X118.512 Y86.678 E.78402
G1 X117.862 Y86.678 E.02432
G1 X133.322 Y102.138 E.81841
G1 X133.322 Y102.788 E.02432
M73 P4 R24
G1 X117.212 Y86.678 E.8528
G1 X116.563 Y86.678 E.02432
G1 X133.322 Y103.437 E.8872
G1 X133.322 Y104.087 E.02432
G1 X115.913 Y86.678 E.92159
G1 X115.263 Y86.678 E.02432
G1 X133.322 Y104.737 E.95598
G1 X133.322 Y105.386 E.02432
G1 X114.614 Y86.678 E.99037
G1 X113.964 Y86.678 E.02432
G1 X133.322 Y106.036 E1.02477
G1 X133.322 Y106.686 E.02432
G1 X113.314 Y86.678 E1.05916
G1 X112.665 Y86.678 E.02432
G1 X133.322 Y107.335 E1.09355
G1 X133.322 Y107.985 E.02432
G1 X112.015 Y86.678 E1.12794
G1 X111.365 Y86.678 E.02432
G1 X133.322 Y108.635 E1.16233
G1 X133.322 Y109.284 E.02432
G1 X110.716 Y86.678 E1.19673
G1 X110.066 Y86.678 E.02432
G1 X133.322 Y109.934 E1.23112
G1 X133.322 Y110.584 E.02432
G1 X109.416 Y86.678 E1.26551
G1 X108.767 Y86.678 E.02432
G1 X133.322 Y111.233 E1.2999
G1 X133.322 Y111.883 E.02432
G1 X108.117 Y86.678 E1.33429
G1 X107.467 Y86.678 E.02432
G1 X133.322 Y112.533 E1.36869
G1 X133.322 Y113.182 E.02432
G1 X106.818 Y86.678 E1.40308
G1 X106.168 Y86.678 E.02432
G1 X133.322 Y113.832 E1.43747
G1 X133.322 Y114.482 E.02432
G1 X105.518 Y86.678 E1.47186
G1 X104.869 Y86.678 E.02432
G1 X133.322 Y115.131 E1.50625
G1 X133.322 Y115.781 E.02432
G1 X104.219 Y86.678 E1.54065
G1 X103.57 Y86.678 E.02432
G1 X133.322 Y116.43 E1.57504
G1 X133.322 Y117.08 E.02432
G1 X102.92 Y86.678 E1.60943
G1 X102.27 Y86.678 E.02432
G1 X133.322 Y117.73 E1.64382
G1 X133.322 Y118.379 E.02432
G1 X101.621 Y86.678 E1.67821
G1 X100.971 Y86.678 E.02432
G1 X133.322 Y119.029 E1.71261
G1 X133.322 Y119.679 E.02432
G1 X100.321 Y86.678 E1.747
G1 X99.672 Y86.678 E.02432
G1 X133.322 Y120.328 E1.78139
G1 X133.322 Y120.978 E.02432
M73 P5 R24
