; HEADER_BLOCK_START
; generated by OrcaSlicer 2.3.1 on 2026-03-17 at 15:30:21
; total layer number: 83
; filament_density: 1.24
; filament_diameter: 1.75
; max_z_height: 16.60
; HEADER_BLOCK_END

; THUMBNAIL_BLOCK_START

;
; THUMBNAIL_BLOCK_END

; THUMBNAIL_BLOCK_START

;
; THUMBNAIL_BLOCK_END

; external perimeters extrusion width = 0.42mm
; perimeters extrusion width = 0.45mm
; infill extrusion width = 0.45mm
; solid infill extrusion width = 0.42mm
; top infill extrusion width = 0.42mm
; support material extrusion width = 0.42mm
; first layer extrusion width = 0.50mm

; external perimeters extrusion width = 0.42mm
; perimeters extrusion width = 0.45mm
; infill extrusion width = 0.45mm
; solid infill extrusion width = 0.42mm
; top infill extrusion width = 0.42mm
; support material extrusion width = 0.42mm
; first layer extrusion width = 0.50mm

; external perimeters extrusion width = 0.42mm
; perimeters extrusion width = 0.45mm
; infill extrusion width = 0.45mm
; solid infill extrusion width = 0.42mm
; top infill extrusion width = 0.42mm
; support material extrusion width = 0.42mm
; first layer extrusion width = 0.50mm

; external perimeters extrusion width = 0.42mm
; perimeters extrusion width = 0.45mm
; infill extrusion width = 0.45mm
; solid infill extrusion width = 0.42mm
; top infill extrusion width = 0.42mm
; support material extrusion width = 0.42mm
; first layer extrusion width = 0.50mm

; external perimeters extrusion width = 0.42mm
; perimeters extrusion width = 0.45mm
; infill extrusion width = 0.45mm
; solid infill extrusion width = 0.42mm
; top infill extrusion width = 0.42mm
; support material extrusion width = 0.42mm
; first layer extrusion width = 0.50mm

; external perimeters extrusion width = 0.42mm
; perimeters extrusion width = 0.45mm
; infill extrusion width = 0.45mm
; solid infill extrusion width = 0.42mm
; top infill extrusion width = 0.42mm
; support material extrusion width = 0.42mm
; first layer extrusion width = 0.50mm

; external perimeters extrusion width = 0.42mm
; perimeters extrusion width = 0.45mm
; infill extrusion width = 0.45mm
; solid infill extrusion width = 0.42mm
; top infill extrusion width = 0.42mm
; support material extrusion width = 0.42mm
; first layer extrusion width = 0.50mm

; external perimeters extrusion width = 0.42mm
; perimeters extrusion width = 0.45mm
; infill extrusion width = 0.45mm
; solid infill extrusion width = 0.42mm
; top infill extrusion width = 0.42mm
; support material extrusion width = 0.42mm
; first layer extrusion width = 0.50mm

; external perimeters extrusion width = 0.42mm
; perimeters extrusion width = 0.45mm
; infill extrusion width = 0.45mm
; solid infill extrusion width = 0.42mm
; top infill extrusion width = 0.42mm
; support material extrusion width = 0.42mm
; first layer extrusion width = 0.50mm

; external perimeters extrusion width = 0.42mm
; perimeters extrusion width = 0.45mm
; infill extrusion width = 0.45mm
; solid infill extrusion width = 0.42mm
; top infill extrusion width = 0.42mm
; support material extrusion width = 0.42mm
; first layer extrusion width = 0.50mm

; EXECUTABLE_BLOCK_START
EXCLUDE_OBJECT_DEFINE NAME=Fab_start_remodel_-_Lid.STL_id_0_copy_0 CENTER=158.36,161.155 POLYGON=[[137.86,157.655],[137.945,156.349],[138.201,155.066],[138.621,153.828],[139.2,152.655],[139.926,151.567],[140.789,150.584],[141.772,149.721],[142.86,148.994],[144.033,148.416],[145.272,147.995],[146.555,147.74],[147.86,147.655],[171.86,147.655],[178.86,161.655],[155.86,174.655],[142.86,174.655],[142.078,174.593],[141.315,174.41],[140.59,174.11],[139.921,173.7],[139.324,173.19],[138.815,172.594],[138.405,171.925],[138.105,171.2],[137.921,170.437],[137.86,169.655],[137.86,157.655]]
EXCLUDE_OBJECT_DEFINE NAME=Fab_start_remodel_-_Lid.STL_id_1_copy_0 CENTER=159.236,110.155 POLYGON=[[138.736,110.655],[145.736,96.6546],[169.736,96.6546],[171.042,96.7402],[172.325,96.9954],[173.563,97.4158],[174.736,97.9944],[175.824,98.7211],[176.808,99.5836],[177.67,100.567],[178.397,101.655],[178.975,102.828],[179.396,104.066],[179.651,105.349],[179.736,106.655],[179.736,118.655],[179.675,119.437],[179.492,120.2],[179.191,120.925],[178.782,121.594],[178.272,122.19],[177.675,122.7],[177.006,123.11],[176.282,123.41],[175.519,123.593],[174.736,123.655],[161.736,123.655],[138.736,110.655]]
EXCLUDE_OBJECT_DEFINE NAME=Fab_Tip.STL_id_2_copy_0 CENTER=104.86,161.644 POLYGON=[[95.8599,148.634],[113.86,148.634],[113.86,174.655],[95.8599,174.655],[95.8599,148.634]]
EXCLUDE_OBJECT_DEFINE NAME=Fab_Medial_remodel.STL_id_3_copy_0 CENTER=93.6016,121.634 POLYGON=[[70.3619,121.387],[70.4434,120.898],[70.6043,120.429],[70.8401,119.993],[71.1445,119.602],[71.509,119.267],[71.9238,118.996],[72.3775,118.797],[72.8579,118.675],[73.3516,118.634],[113.852,118.634],[114.345,118.675],[114.826,118.797],[115.279,118.996],[115.694,119.267],[116.059,119.602],[116.363,119.993],[116.599,120.429],[116.76,120.898],[116.841,121.387],[116.841,121.882],[116.76,122.371],[116.599,122.839],[116.363,123.275],[116.059,123.666],[115.694,124.002],[115.279,124.273],[114.826,124.472],[114.345,124.593],[113.852,124.634],[73.3516,124.634],[72.8579,124.593],[72.3775,124.472],[71.9238,124.273],[71.509,124.002],[71.1445,123.666],[70.8401,123.275],[70.6043,122.839],[70.4434,122.371],[70.3619,121.882],[70.3619,121.387]]
EXCLUDE_OBJECT_DEFINE NAME=Fab_Mid.STL_id_4_copy_0 CENTER=56.0666,167.655 POLYGON=[[40.2734,171.816],[40.2887,171.312],[40.3885,170.816],[40.5699,170.345],[40.8278,169.911],[43.1537,166.655],[46.5421,161.911],[46.8478,161.548],[47.2069,161.237],[47.6105,160.987],[48.0486,160.804],[48.51,160.692],[48.9833,160.655],[68.8599,160.655],[69.3292,160.692],[69.7869,160.801],[70.2218,160.982],[70.6232,161.228],[70.9812,161.533],[71.2869,161.891],[71.5329,162.293],[71.713,162.728],[71.8229,163.185],[71.8599,163.655],[71.8229,164.124],[71.713,164.582],[71.5329,165.017],[71.2869,165.418],[70.9812,165.776],[70.6232,166.082],[57.2683,174.322],[56.8303,174.505],[56.3689,174.617],[55.8956,174.655],[43.269,174.655],[42.7658,174.612],[42.2768,174.486],[41.8159,174.279],[41.3963,173.998],[41.0297,173.651],[40.7265,173.247],[40.4954,172.798],[40.3429,172.317],[40.2734,171.816]]
EXCLUDE_OBJECT_DEFINE NAME=Fab_Distil.STL_id_5_copy_0 CENTER=104.011,89.2103 POLYGON=[[87.4448,91.6269],[87.4892,91.1126],[87.6211,90.6136],[87.8366,90.1445],[88.1293,89.7194],[88.4906,89.3507],[88.9097,89.0494],[89.3743,88.8244],[89.8706,88.6824],[110.578,84.7938],[117.124,83.8284],[117.639,83.7944],[118.152,83.8492],[118.648,83.9913],[119.113,84.2163],[119.532,84.5176],[119.893,84.8862],[120.186,85.3114],[120.401,85.7805],[120.533,86.2795],[120.578,86.7938],[120.533,87.3081],[120.401,87.8071],[120.186,88.2762],[119.893,88.7013],[119.532,89.07],[119.113,89.3713],[118.648,89.5963],[118.152,89.7383],[103.692,93.6269],[90.8989,94.5923],[90.3838,94.6263],[89.8706,94.5714],[89.3743,94.4294],[88.9097,94.2044],[88.4906,93.9031],[88.1293,93.5344],[87.8366,93.1093],[87.6211,92.6402],[87.4892,92.1412],[87.4448,91.6269]]
EXCLUDE_OBJECT_DEFINE NAME=Fab_Mid_-_Lid.STL_id_6_copy_0 CENTER=145.659,65.6546 POLYGON=[[133.493,61.4929],[133.562,60.9927],[133.715,60.5113],[133.946,60.0622],[134.249,59.6583],[134.616,59.3109],[135.035,59.03],[135.496,58.8235],[135.985,58.6971],[136.488,58.6546],[149.115,58.6546],[149.588,58.6922],[150.05,58.804],[150.488,58.9871],[150.891,59.2371],[151.25,59.5476],[151.556,59.9109],[157.27,67.9109],[157.528,68.3451],[157.71,68.8164],[157.809,69.3115],[157.825,69.8163],[157.755,70.3165],[157.603,70.798],[157.372,71.247],[157.068,71.6509],[156.702,71.9983],[156.282,72.2792],[155.821,72.4858],[155.332,72.6121],[154.829,72.6546],[142.203,72.6546],[141.729,72.617],[141.268,72.5053],[140.83,72.3221],[140.426,72.0721],[140.067,71.7616],[139.761,71.3983],[134.047,63.3983],[133.789,62.9641],[133.608,62.4928],[133.508,61.9977],[133.493,61.4929]]
EXCLUDE_OBJECT_DEFINE NAME=Spacer.STL_id_7_copy_0 CENTER=53.6948,91.8454 POLYGON=[[43.9448,89.3454],[43.9875,88.6927],[44.1151,88.0513],[44.3254,87.432],[44.6146,86.8454],[44.978,86.3016],[45.4092,85.8098],[45.901,85.3786],[46.4448,85.0152],[47.0314,84.726],[47.6507,84.5157],[48.2921,84.3881],[48.9448,84.3454],[55.9448,84.3454],[56.7845,84.3925],[57.6137,84.5334],[58.4219,84.7662],[59.1989,85.0881],[59.935,85.4949],[60.6209,85.9816],[61.2481,86.5421],[61.8085,87.1692],[62.2952,87.8551],[62.702,88.5912],[63.0239,89.3683],[63.2567,90.1765],[63.3976,91.0056],[63.4448,91.8454],[63.3976,92.6851],[63.2567,93.5143],[63.0239,94.3225],[62.702,95.0995],[62.2952,95.8356],[61.8085,96.5215],[61.2481,97.1487],[60.6209,97.7091],[59.935,98.1958],[59.1989,98.6026],[58.4219,98.9245],[57.6137,99.1573],[56.7845,99.2982],[55.9448,99.3454],[48.9448,99.3454],[48.2921,99.3026],[47.6507,99.175],[47.0314,98.9648],[46.4448,98.6755],[45.901,98.3121],[45.4092,97.8809],[44.978,97.3892],[44.6146,96.8454],[44.3254,96.2588],[44.1151,95.6395],[43.9875,94.998],[43.9448,94.3454],[43.9448,89.3454]]
EXCLUDE_OBJECT_DEFINE NAME=Spacer.STL_id_8_copy_0 CENTER=53.6948,52.8454 POLYGON=[[43.9448,50.3454],[43.9875,49.6927],[44.1151,49.0513],[44.3254,48.432],[44.6146,47.8454],[44.978,47.3016],[45.4092,46.8098],[45.901,46.3786],[46.4448,46.0152],[47.0314,45.726],[47.6507,45.5157],[48.2921,45.3881],[48.9448,45.3454],[55.9448,45.3454],[56.7845,45.3925],[57.6137,45.5334],[58.4219,45.7662],[59.1989,46.0881],[59.935,46.4949],[60.6209,46.9816],[61.2481,47.5421],[61.8085,48.1692],[62.2952,48.8551],[62.702,49.5912],[63.0239,50.3683],[63.2567,51.1765],[63.3976,52.0056],[63.4448,52.8454],[63.3976,53.6851],[63.2567,54.5143],[63.0239,55.3225],[62.702,56.0995],[62.2952,56.8356],[61.8085,57.5215],[61.2481,58.1487],[60.6209,58.7091],[59.935,59.1958],[59.1989,59.6026],[58.4219,59.9245],[57.6137,60.1573],[56.7845,60.2982],[55.9448,60.3454],[48.9448,60.3454],[48.2921,60.3026],[47.6507,60.175],[47.0314,59.9648],[46.4448,59.6755],[45.901,59.3121],[45.4092,58.8809],[44.978,58.3892],[44.6146,57.8454],[44.3254,57.2588],[44.1151,56.6395],[43.9875,55.998],[43.9448,55.3454],[43.9448,50.3454]]
EXCLUDE_OBJECT_DEFINE NAME=Fab_start_remodel.STL_id_9_copy_0 CENTER=93.9448,54.5535 POLYGON=[[87.4448,47.5535],[100.445,47.5535],[100.445,61.5535],[87.4448,61.5535],[87.4448,47.5535]]
M73 P0 R39
M106 S0
M106 P2 S0
;TYPE:Custom
M106 P2 S255 
M191 S25 ;set chamber_temperature and wait for it to be reached
M106 P2 S0 
M140 S0
M104 S0 
START_PRINT EXTRUDER_TEMP=220 BED_TEMP=60
G90
G21
M83 ; use relative distances for extrusion
; filament start gcode
M106 S0
M106 P2 S0
;LAYER_CHANGE
;Z:0.2
;HEIGHT:0.2
;BEFORE_LAYER_CHANGE
;0.2
G92 E0

G1 E-.6 F2400
;_SET_FAN_SPEED_CHANGING_LAYER
SET_VELOCITY_LIMIT ACCEL=500 ACCEL_TO_DECEL=250
SET_VELOCITY_LIMIT SQUARE_CORNER_VELOCITY=9
EXCLUDE_OBJECT_START NAME=Fab_start_remodel_-_Lid.STL_id_0_copy_0
G1 Z.4 F30000
G1 X137.854 Y147.25
G1 Z.4
G1 Z.2
G1 E.6 F2400
;TYPE:Brim
;WIDTH:0.5
G1 F3600
G1 X138.836 Y146.388 E.04865
G1 X139.298 Y146.033 E.02171
G1 X140.383 Y145.306 E.04865
G1 X140.888 Y145.015 E.02171
G1 X142.059 Y144.436 E.04865
G1 X142.597 Y144.213 E.02171
G1 X143.834 Y143.792 E.04865
G1 X144.397 Y143.641 E.02171
G1 X145.678 Y143.385 E.04865
G1 X146.255 Y143.309 E.02169
G1 X147.86 Y143.213 E.05989
G1 X171.851 Y143.212 E.89358
G1 X172.5 Y143.26 E.02422
G1 X173.121 Y143.401 E.02373
G1 X174.049 Y143.804 E.03766
G1 X174.583 Y144.154 E.02381
G1 X175.063 Y144.581 E.0239
G1 X175.474 Y145.073 E.0239
G1 X175.807 Y145.619 E.0238
G1 X176.118 Y146.405 E.03148
G1 X176.264 Y147.084 E.02589
G1 X176.302 Y147.662 E.02157
G1 X176.302 Y150.358 E.1004
G1 X176.345 Y150.491 E.0052
G1 X182.47 Y159.066 E.3925
G1 X182.808 Y159.621 E.02422
G1 X183.055 Y160.21 E.02377
G1 X183.255 Y161.103 E.03411
G1 X183.291 Y161.837 E.02737
G1 X183.223 Y162.474 E.02386
G1 X183.061 Y163.095 E.0239
G1 X182.81 Y163.686 E.0239
G1 X182.474 Y164.232 E.0239
G1 X182.063 Y164.721 E.02377
G1 X181.365 Y165.302 E.03385
G1 X180.717 Y165.679 E.02791
G1 X180.119 Y165.91 E.02386
G1 X179.493 Y166.05 E.02391
G1 X178.852 Y166.097 E.02395
G1 X168.946 Y166.097 E.36894
G1 X168.771 Y166.179 E.00719
G1 X159.268 Y177.504 E.55064
G1 X158.815 Y177.969 E.02422
G1 X158.304 Y178.358 E.02388
G1 X157.696 Y178.689 E.0258
G1 X157.095 Y178.917 E.02395
G1 X156.467 Y179.054 E.02392
G1 X155.852 Y179.097 E.02298
G1 X142.867 Y179.097 E.48362
G1 X141.738 Y179.022 E.04215
G1 X141.054 Y178.915 E.0258
G1 X140.293 Y178.733 E.02914
G1 X139.628 Y178.518 E.02605
G1 X138.904 Y178.22 E.02914
G1 X138.281 Y177.903 E.02605
G1 X137.613 Y177.496 E.02914
G1 X137.047 Y177.086 E.02603
G1 X136.446 Y176.574 E.02941
G1 X135.956 Y176.085 E.02578
G1 X135.447 Y175.49 E.02914
G1 X135.035 Y174.925 E.02605
G1 X134.625 Y174.259 E.02914
G1 X134.307 Y173.636 E.02604
G1 X134.006 Y172.914 E.02914
G1 X133.789 Y172.249 E.02605
G1 X133.606 Y171.489 E.02914
G1 X133.495 Y170.8 E.02599
G1 X133.418 Y169.655 E.04275
G1 X133.418 Y157.662 E.44671
G1 X133.512 Y156.066 E.05952
G1 X133.588 Y155.491 E.0216
G1 X133.842 Y154.21 E.04865
G1 X133.992 Y153.647 E.02171
G1 X134.412 Y152.407 E.04876
G1 X134.634 Y151.871 E.0216
G1 X135.211 Y150.699 E.04865
G1 X135.502 Y150.194 E.02171
G1 X136.227 Y149.108 E.04865
G1 X136.582 Y148.645 E.02171
G1 X137.442 Y147.662 E.04865
G1 X137.826 Y147.278 E.02022
G1 X138.149 Y147.601 F30000
G1 F3600
G1 X138.17 Y147.58 E.0011
G1 X139.129 Y146.739 E.04754
G1 X139.568 Y146.402 E.0206
G1 X140.621 Y145.697 E.0472
G1 X141.108 Y145.416 E.02093
G1 X142.244 Y144.855 E.0472
G1 X142.763 Y144.639 E.02093
G1 X143.971 Y144.229 E.04753
G1 X144.506 Y144.085 E.0206
G1 X145.748 Y143.837 E.0472
G1 X146.294 Y143.765 E.0205
G1 X147.878 Y143.67 E.05911
G1 X171.84 Y143.67 E.89248
G1 X172.422 Y143.713 E.02176
G1 X172.966 Y143.834 E.02075
G1 X173.82 Y144.203 E.03465
G1 X174.296 Y144.512 E.02116
G1 X174.726 Y144.893 E.02137
G1 X175.107 Y145.349 E.02213
G1 X175.401 Y145.834 E.02114
G1 X175.675 Y146.527 E.02775
G1 X175.808 Y147.138 E.02329
G1 X175.845 Y147.682 E.0203
G1 X175.845 Y150.343 E.0991
G1 X175.909 Y150.625 E.0108
G1 X175.979 Y150.765 E.00582
G1 X182.085 Y159.314 E.39128
G1 X182.403 Y159.839 E.02289
G1 X182.621 Y160.361 E.02106
G1 X182.798 Y161.154 E.03025
G1 X182.833 Y161.813 E.02461
G1 X182.773 Y162.382 E.02128
G1 X182.63 Y162.937 E.02137
G1 X182.406 Y163.466 E.02137
G1 X182.095 Y163.972 E.02213
G1 X181.73 Y164.404 E.02106
G1 X181.11 Y164.919 E.03002
G1 X180.528 Y165.26 E.02515
G1 X179.976 Y165.473 E.02202
G1 X179.416 Y165.597 E.02138
G1 X178.83 Y165.64 E.02188
G1 X168.961 Y165.64 E.36757
G1 X168.739 Y165.689 E.00846
G1 X168.592 Y165.758 E.00608
G1 X168.411 Y165.896 E.00846
G1 X158.925 Y177.2 E.54964
G1 X158.518 Y177.619 E.02176
G1 X158.064 Y177.967 E.02131
G1 X157.513 Y178.268 E.02338
G1 X156.954 Y178.48 E.02225
G1 X156.392 Y178.601 E.02141
G1 X155.831 Y178.64 E.02096
G1 X142.887 Y178.64 E.48211
G1 X141.783 Y178.567 E.04121
G1 X141.137 Y178.465 E.02434
G1 X140.422 Y178.294 E.02741
G1 X139.79 Y178.09 E.02471
G1 X139.1 Y177.806 E.0278
G1 X138.509 Y177.506 E.02471
G1 X137.871 Y177.118 E.0278
G1 X137.334 Y176.729 E.0247
G1 X136.76 Y176.241 E.02807
G1 X136.288 Y175.77 E.02484
G1 X135.809 Y175.211 E.02741
G1 X135.418 Y174.675 E.02471
G1 X135.027 Y174.039 E.0278
G1 X134.725 Y173.449 E.02471
G1 X134.437 Y172.76 E.0278
G1 X134.231 Y172.13 E.02471
G1 X134.055 Y171.404 E.0278
G1 X133.951 Y170.755 E.02451
G1 X133.875 Y169.635 E.0418
G1 X133.875 Y157.679 E.4453
G1 X133.967 Y156.114 E.05838
G1 X134.04 Y155.561 E.02079
G1 X134.286 Y154.318 E.0472
G1 X134.431 Y153.775 E.02093
G1 X134.842 Y152.564 E.04765
G1 X135.053 Y152.055 E.02048
G1 X135.612 Y150.918 E.0472
G1 X135.893 Y150.432 E.02093
G1 X136.602 Y149.37 E.04753
G1 X136.938 Y148.931 E.0206
G1 X137.773 Y147.978 E.0472
G1 X138.121 Y147.63 E.01834
G1 X138.445 Y147.953 F30000
G1 F3600
G1 X138.486 Y147.911 E.0022
G1 X139.416 Y147.095 E.04608
G1 X139.838 Y146.771 E.01982
G1 X140.867 Y146.083 E.04609
G1 X141.328 Y145.817 E.01982
G1 X142.429 Y145.273 E.04575
G1 X142.929 Y145.066 E.02015
G1 X144.109 Y144.665 E.04642
G1 X144.614 Y144.53 E.01948
G1 X145.819 Y144.289 E.04576
G1 X146.333 Y144.221 E.01932
